icons/desktop/16/translate-16.svg

<svg width="20" height="20" viewBox="0 0 20 20" fill="none" xmlns="http://www.w3.org/2000/svg">
<path fill-rule="evenodd" clip-rule="evenodd" d="M7.00049 2.00195C7.41432 2.00215 7.75049 2.33807 7.75049 2.75195V3.50195L7.79443 3.52148C9.2782 3.55049 10.771 3.66263 12.2388 3.85059C12.6487 3.85059 12.9809 4.18286 12.981 4.59277C12.981 5.00277 12.6488 5.33496 12.2388 5.33496L11.0142 5.20312L10.5835 6.41602C10.0335 7.96187 9.15228 9.39066 8.04443 10.6006C9.00542 11.5396 10.1082 12.2828 11.3071 12.8008C11.3115 12.8017 11.3159 12.8088 11.3169 12.8105L13.1655 8.45801C13.2825 8.18111 13.5541 8.00104 13.855 8.00098H14.6841C14.9851 8.00098 15.2565 8.18101 15.3745 8.45801L18.561 15.9668L18.5845 16.0303C18.5895 16.0481 18.5951 16.0661 18.5991 16.085C18.6121 16.1399 18.6186 16.1979 18.6187 16.2578C18.6187 16.6677 18.2873 16.9998 17.8774 17C17.5754 17 17.3167 16.8166 17.2007 16.5576L17.1978 16.5615L16.3062 14.5039H12.2261L11.394 16.4561L11.3569 16.5459C11.245 16.8188 10.9764 17.0106 10.6636 17.0107C10.2496 17.0107 9.91357 16.6747 9.91357 16.2607C9.9136 16.1568 9.93515 16.0596 9.97412 15.9707L10.73 14.1875C9.34309 13.5915 8.06837 12.7335 6.96045 11.6445C6.06645 12.4025 5.08174 13.0222 4.03174 13.4932C3.94184 13.5331 3.84166 13.5557 3.73682 13.5557C3.32696 13.5555 2.99561 13.2234 2.99561 12.8135C2.99579 12.5217 3.16773 12.2752 3.4126 12.1543L3.46533 12.124C4.35928 11.716 5.19844 11.185 5.9624 10.5391C5.11446 9.47213 4.43889 8.26523 3.98389 6.98633L3.81201 6.50293H5.40576C5.78676 7.56892 6.34849 8.57364 7.04248 9.47363C7.96533 8.43471 8.70253 7.22387 9.16748 5.91602L9.46631 5.07617C6.92731 4.91517 4.36414 4.99213 1.84814 5.32812L1.78564 5.33398C1.38187 5.32573 1.05713 4.99959 1.05713 4.59375C1.05724 4.18799 1.37996 3.85976 1.78369 3.85254C3.27553 3.66156 4.7788 3.54557 6.28564 3.51855L6.25049 3.50195V2.75195C6.25049 2.33795 6.58649 2.00195 7.00049 2.00195ZM12.8657 13H15.6724L14.269 9.69434L12.8657 13Z" fill="black"/>
</svg>

<!-- This Source Code Form is subject to the terms of the Mozilla Public
   - License, v. 2.0. If a copy of the MPL was not distributed with this
   - file, You can obtain one at http://mozilla.org/MPL/2.0/. -->
<svg xmlns="http://www.w3.org/2000/svg" width="20" height="20" fill="context-fill" fill-opacity="context-fill-opacity" viewBox="0 0 20 20">
    <path fill-rule="evenodd" d="M7 2.002a.75.75 0 0 1 .75.75v.75l.044.02c1.484.028 2.977.14 4.445.329a.742.742 0 0 1 0 1.484l-1.225-.132-.43 1.213a12.4 12.4 0 0 1-2.54 4.185 10.8 10.8 0 0 0 3.263 2.2c.005 0 .009.008.01.01l1.848-4.353a.75.75 0 0 1 .69-.457h.83a.75.75 0 0 1 .69.457l3.186 7.509.023.063q.009.027.015.055.02.083.02.173a.742.742 0 0 1-1.418.3l-.003.003-.892-2.057h-4.08l-.832 1.952-.037.09a.75.75 0 1 1-1.383-.575l.756-1.783a12.3 12.3 0 0 1-3.77-2.543 12.3 12.3 0 0 1-2.928 1.848.742.742 0 0 1-1.036-.68c0-.291.172-.538.417-.659l.052-.03a10.8 10.8 0 0 0 2.497-1.585 12.4 12.4 0 0 1-1.978-3.553l-.172-.483h1.594c.38 1.066.942 2.07 1.636 2.97a10.9 10.9 0 0 0 2.125-3.557l.3-.84a39 39 0 0 0-7.619.252l-.062.006a.74.74 0 0 1-.002-1.481 41 41 0 0 1 4.502-.334l-.036-.017v-.75a.75.75 0 0 1 .75-.75M12.866 13h2.806L14.27 9.694z" clip-rule="evenodd" />
</svg>
